X:22
T:Father Dollard's
Z: id:dc-hornpipe-21
M:C|
L:1/8
K:D Major

A,C|D2 (3DDD DFAA|defe dcBA|FAA2 BAAF|GEFD CEA,C|!
D2 (3DDD DFAA|defe dcBA|FAA2 BAGE|F2D2 D2:|!
de|fdd2 Add2|fdd2 bgaf|gece Acef|g2bg agfe|!
Add2 (3Bcd AF|Add2 (3Bcd AF|Adfa geAc|eddc d2:|!

